lib/healthicons/icons/outline/body/bacteria.svg

<svg fill="none" height="48" viewBox="0 0 48 48" width="48" xmlns="http://www.w3.org/2000/svg"><path clip-rule="evenodd" d="m16 8.02165c1.9626.1493 3.712 1.06118 4.9525 2.43995l2.1687-2.16863 1.4142 1.41421-2.4403 2.44032c.4879.9895.762 2.1033.762 3.2811 0 2.3223.815 4.4543 2.1745 6.1256l2.2612-2.2612 1.4143 1.4142-2.2613 2.2613c1.6713 1.3594 3.8033 2.1744 6.1256 2.1744.6552 0 1.2906.0848 1.8958.2441l1.6668-2.887 1.7321 1-1.5369 2.662c2.1964 1.2905 3.6708 3.6778 3.6708 6.4094 0 1.0875-.2337 2.1203-.6535 3.0511l2.6176 1.5113-1 1.732-2.679-1.5467c-1.3626 1.6381-3.4164 2.6809-5.7137 2.6809-.191 0-.3814-.0022-.5714-.0065v3.0065h-2v-3.1329c-3.0721-.3195-5.9761-1.2051-8.6056-2.5505l-1.5284 2.6473-1.7321-1 1.5186-2.6302c-1.9742-1.2227-3.7624-2.7171-5.3122-4.4312l-2.6331 2.6331-1.4143-1.4142 2.7621-2.7621c-1.6377-2.1375-2.9323-4.5519-3.80119-7.1608l-2.99502.8025-.51764-1.9319 2.95895-.7928c-.45753-1.8742-.7001-3.8326-.7001-5.8477 0-.681.09162-1.3405.26322-1.967l-2.76322-1.5954 1-1.732 2.55552 1.4754c1.06418-1.77207 2.84648-3.06369 4.94448-3.47237v-3.13723h2zm-.5714 1.97835c-2.9981 0-5.4286 2.4305-5.4286 5.4286 0 12.4658 10.1056 22.5714 22.5714 22.5714 2.9981 0 5.4286-2.4305 5.4286-5.4286s-2.4305-5.4285-5.4286-5.4285c-6.4696 0-11.7143-5.2447-11.7143-11.7143 0-2.9981-2.4304-5.4286-5.4285-5.4286zm-.4286 5c-.5523 0-1 .4477-1 1s.4477 1 1 1 1-.4477 1-1-.4477-1-1-1zm-3 1c0-1.6569 1.3431-3 3-3s3 1.3431 3 3-1.3431 3-3 3-3-1.3431-3-3zm11 14c0-.5523.4477-1 1-1s1 .4477 1 1-.4477 1-1 1-1-.4477-1-1zm1-3c-1.6569 0-3 1.3431-3 3s1.3431 3 3 3 3-1.3431 3-3-1.3431-3-3-3zm-5-3c0 1.1046-.8954 2-2 2s-2-.8954-2-2 .8954-2 2-2 2 .8954 2 2zm13 10c1.1046 0 2-.8954 2-2s-.8954-2-2-2-2 .8954-2 2 .8954 2 2 2z" fill="#333" fill-rule="evenodd"/></svg>

<svg width="48" height="48" viewBox="0 0 48 48" fill="none" xmlns="http://www.w3.org/2000/svg">
<path fill-rule="evenodd" clip-rule="evenodd" d="M16 8.02165C17.9626 8.17095 19.712 9.08283 20.9525 10.4616L23.1212 8.29297L24.5354 9.70718L22.0951 12.1475C22.583 13.137 22.8571 14.2508 22.8571 15.4286C22.8571 17.7509 23.6721 19.8829 25.0316 21.5542L27.2928 19.293L28.7071 20.7072L26.4458 22.9685C28.1171 24.3279 30.2491 25.1429 32.5714 25.1429C33.2266 25.1429 33.862 25.2277 34.4672 25.387L36.134 22.5L37.8661 23.5L36.3292 26.162C38.5256 27.4525 40 29.8398 40 32.5714C40 33.6589 39.7663 34.6917 39.3465 35.6225L41.9641 37.1338L40.9641 38.8658L38.2851 37.3191C36.9225 38.9572 34.8687 40 32.5714 40C32.3804 40 32.19 39.9978 32 39.9935V43H30V39.8671C26.9279 39.5476 24.0239 38.662 21.3944 37.3166L19.866 39.9639L18.1339 38.9639L19.6525 36.3337C17.6783 35.111 15.8901 33.6166 14.3403 31.9025L11.7072 34.5356L10.2929 33.1214L13.055 30.3593C11.4173 28.2218 10.1227 25.8074 9.25381 23.1985L6.25879 24.001L5.74115 22.0691L8.7001 21.2763C8.24257 19.4021 8 17.4437 8 15.4286C8 14.7476 8.09162 14.0881 8.26322 13.4616L5.5 11.8662L6.5 10.1342L9.05552 11.6096C10.1197 9.83753 11.902 8.54591 14 8.13723V5H16V8.02165ZM15.4286 10C12.4305 10 10 12.4305 10 15.4286C10 27.8944 20.1056 38 32.5714 38C35.5695 38 38 35.5695 38 32.5714C38 29.5733 35.5695 27.1429 32.5714 27.1429C26.1018 27.1429 20.8571 21.8982 20.8571 15.4286C20.8571 12.4305 18.4267 10 15.4286 10ZM15 15C14.4477 15 14 15.4477 14 16C14 16.5523 14.4477 17 15 17C15.5523 17 16 16.5523 16 16C16 15.4477 15.5523 15 15 15ZM12 16C12 14.3431 13.3431 13 15 13C16.6569 13 18 14.3431 18 16C18 17.6569 16.6569 19 15 19C13.3431 19 12 17.6569 12 16ZM23 30C23 29.4477 23.4477 29 24 29C24.5523 29 25 29.4477 25 30C25 30.5523 24.5523 31 24 31C23.4477 31 23 30.5523 23 30ZM24 27C22.3431 27 21 28.3431 21 30C21 31.6569 22.3431 33 24 33C25.6569 33 27 31.6569 27 30C27 28.3431 25.6569 27 24 27ZM19 24C19 25.1046 18.1046 26 17 26C15.8954 26 15 25.1046 15 24C15 22.8954 15.8954 22 17 22C18.1046 22 19 22.8954 19 24ZM32 34C33.1046 34 34 33.1046 34 32C34 30.8954 33.1046 30 32 30C30.8954 30 30 30.8954 30 32C30 33.1046 30.8954 34 32 34Z" fill="#333333"/>
</svg>
